!!!OTL: Abfertigung
!!!ARE: Europa, Mitteleuropa, Deutschland
!!!SCT: A0221
!!!YEM: Copyright 1995, estate of Helmut Schaffrath.
**kern
*ICvox
*Ivox
*M4/4
*k[]
*a:
{4a
4a
4a
=1
2b
4b
4b
=2
4ee
4ee
4dd
4ccn
=3
2b
2r}
=4
{4ccn
4ccn
4dd
4dd
=5
2ee
4dd
4dd
=6
4ee
4ee
4dd
4ccn
=7
2b
2r}
=8
{4b
4b
4ccn
4ccn
=9
4b
4a
2b
=10
4b
4b
4e
4e
=11
4gn
4gn
4a
4a
=12
2b
4r}
{4b
=13
4dd
4a
4b
4ccn
=14
4ee
4dd
4ccn
4ccn
=15
4b
4a
2a}
==
!!!AGN: Romanze, Ballade, Lied
!! None, Anzeiger VI, 1837, Beil. II. No. 7. Original: Cod. von
!!    St. Blasien, 15. Jh.
!!!ONB: ESAC (Essen Associative Code) Database: ALTDEU
!!!AMT: simple quadruple
!!!AIN: vox
!!!EED: Helmut Schaffrath
!!!EEV: 1.0
*-
